SVG/People-reached.svg

<svg xmlns="http://www.w3.org/2000/svg" width="48" height="40" viewBox="0 0 48 40"><g id="Layer_2" data-name="Layer 2"><g id="Icons"><path d="M13,28.97a10.938,10.938,0,0,1,4.13-8.46A7.56514,7.56514,0,0,0,12.63,19,7.68978,7.68978,0,0,0,5,26.58V30h8Z" fill="#5091cd"/><path d="M35,28.97V30h8V26.58A7.68978,7.68978,0,0,0,35.37,19a7.56514,7.56514,0,0,0-4.5,1.51A10.938,10.938,0,0,1,35,28.97Z" fill="#5091cd"/><path d="M15,30v3H33V28.97a9.00051,9.00051,0,0,0-18,0Z" fill="#5091cd"/><circle cx="24" cy="13" r="5" fill="#5091cd"/><circle cx="13" cy="13" r="4" fill="#5091cd"/><circle cx="35" cy="13" r="4" fill="#5091cd"/><path d="M47.56067.43933A1.49524,1.49524,0,0,0,46.5,0H1.5A1.49942,1.49942,0,0,0,0,1.5V34a1.50552,1.50552,0,0,0,.02515.25A1.50552,1.50552,0,0,0,0,34.5v4A1.5,1.5,0,0,0,1.5,40h45A1.5,1.5,0,0,0,48,38.5V1.5A1.49569,1.49569,0,0,0,47.56067.43933ZM2.97485,34.25A1.50552,1.50552,0,0,0,3,34V3H45V37H3V34.5A1.50552,1.50552,0,0,0,2.97485,34.25Z" fill="#5091cd"/></g></g></svg>

<?xml version="1.0" encoding="UTF-8"?>
<svg id="Layer_1" xmlns="http://www.w3.org/2000/svg" version="1.1" viewBox="0 0 48 40">
  <!-- Generator: Adobe Illustrator 29.2.1, SVG Export Plug-In . SVG Version: 2.1.0 Build 116)  -->
  <defs>
    <style>
      .st0 {
        fill: #009edb;
      }
    </style>
  </defs>
  <g id="Layer_2">
    <g id="Icons">
      <path class="st0" d="M13,29c0-3.3,1.5-6.4,4.1-8.5-1.3-1-2.9-1.5-4.5-1.5-4.2,0-7.6,3.4-7.6,7.6v3.4h8v-1Z"/>
      <path class="st0" d="M35,29v1h8v-3.4c0-4.2-3.4-7.5-7.6-7.6-1.6,0-3.2.5-4.5,1.5,2.6,2.1,4.1,5.2,4.1,8.5Z"/>
      <path class="st0" d="M15,30v3h18v-4c0-5-4.1-9-9.1-8.9-4.9,0-8.9,4-8.9,8.9v1Z"/>
      <circle class="st0" cx="24" cy="13" r="5"/>
      <circle class="st0" cx="13" cy="13" r="4"/>
      <circle class="st0" cx="35" cy="13" r="4"/>
      <path class="st0" d="M47.6.4c-.3-.3-.7-.4-1.1-.4H1.5C.7,0,0,.7,0,1.5s0,0,0,0v32.5c0,0,0,.2,0,.2,0,0,0,.2,0,.2v4c0,.8.7,1.5,1.5,1.5h45c.8,0,1.5-.7,1.5-1.5V1.5c0-.4-.2-.8-.4-1.1ZM3,34.2c0,0,0-.2,0-.2V3h42v34H3v-2.5c0,0,0-.2,0-.2Z"/>
    </g>
  </g>
</svg>
